icons/il.svg

<?xml version="1.0" ?>
<svg xmlns="http://www.w3.org/2000/svg" xmlns:ev="http://www.w3.org/2001/xml-events" xmlns:xlink="http://www.w3.org/1999/xlink" baseProfile="full" height="600px" version="1.1" viewBox="3206.1754292399564 -1028.758888554766 3822.712814864066 12293.924628400735" width="187px">
	<defs/>
	<path d="M 6473.0,10233.0 C 6466.0,10231.0 6460.0,10221.0 6460.0,10211.0 C 6460.0,10202.0 6453.0,10185.0 6445.0,10174.0 C 6428.0,10149.0 6409.0,10041.0 6417.0,10012.0 C 6420.0,10001.0 6415.0,9960.0 6406.0,9921.0 C 6397.0,9883.0 6390.0,9838.0 6390.0,9822.0 C 6390.0,9804.0 6380.0,9784.0 6361.0,9766.0 C 6345.0,9750.0 6329.0,9728.0 6326.0,9715.0 C 6321.0,9695.0 6314.0,9693.0 6261.0,9694.0 C 6204.0,9695.0 6200.0,9693.0 6168.0,9657.0 C 6136.0,9620.0 6133.0,9619.0 6060.0,9617.0 C 5990.0,9615.0 5985.0,9616.0 5982.0,9637.0 C 5980.0,9649.0 5970.0,9662.0 5959.0,9665.0 C 5949.0,9669.0 5934.0,9683.0 5927.0,9697.0 C 5913.0,9722.0 5912.0,9722.0 5800.0,9721.0 C 5738.0,9720.0 5679.0,9715.0 5669.0,9709.0 C 5659.0,9704.0 5604.0,9699.0 5546.0,9697.0 C 5488.0,9696.0 5439.0,9692.0 5436.0,9690.0 C 5434.0,9687.0 5418.0,9608.0 5401.0,9515.0 C 5377.0,9386.0 5370.0,9316.0 5370.0,9223.0 C 5370.0,9126.0 5366.0,9093.0 5351.0,9058.0 C 5313.0,8971.0 5255.0,8941.0 5201.0,8981.0 C 5178.0,8998.0 5164.0,9001.0 5137.0,8996.0 C 5086.0,8986.0 5077.0,8958.0 5085.0,8830.0 C 5092.0,8730.0 5091.0,8721.0 5067.0,8674.0 C 5042.0,8625.0 5029.0,8540.0 5010.0,8320.0 C 5005.0,8268.0 4993.0,8196.0 4982.0,8160.0 C 4942.0,8030.0 4920.0,7939.0 4920.0,7901.0 C 4920.0,7880.0 4911.0,7837.0 4900.0,7804.0 C 4888.0,7772.0 4848.0,7621.0 4810.0,7469.0 C 4738.0,7183.0 4671.0,6956.0 4646.0,6917.0 C 4638.0,6905.0 4618.0,6844.0 4601.0,6782.0 C 4582.0,6713.0 4547.0,6624.0 4511.0,6552.0 C 4479.0,6488.0 4450.0,6422.0 4446.0,6407.0 C 4443.0,6392.0 4413.0,6319.0 4380.0,6244.0 C 4347.0,6170.0 4320.0,6103.0 4320.0,6096.0 C 4320.0,6089.0 4293.0,6045.0 4259.0,5999.0 C 4225.0,5953.0 4194.0,5904.0 4188.0,5890.0 C 4183.0,5876.0 4149.0,5821.0 4113.0,5767.0 C 4078.0,5713.0 4051.0,5663.0 4054.0,5655.0 C 4056.0,5648.0 4084.0,5623.0 4114.0,5601.0 C 4145.0,5578.0 4177.0,5546.0 4186.0,5528.0 L 4202.0,5497.0 L 4135.0,5436.0 C 4055.0,5365.0 3984.0,5295.0 3953.0,5260.0 C 3941.0,5246.0 3902.0,5207.0 3866.0,5172.0 C 3774.0,5082.0 3756.0,5040.0 3763.0,4935.0 L 3769.0,4851.0 L 3699.0,4788.0 C 3661.0,4753.0 3607.0,4705.0 3579.0,4680.0 L 3529.0,4635.0 L 3585.0,4470.0 C 3615.0,4379.0 3677.0,4184.0 3721.0,4035.0 C 3794.0,3794.0 3815.0,3738.0 3921.0,3507.0 C 4023.0,3282.0 4044.0,3229.0 4075.0,3103.0 C 4100.0,3001.0 4110.0,2936.0 4110.0,2882.0 C 4110.0,2807.0 4111.0,2803.0 4155.0,2739.0 L 4200.0,2673.0 L 4180.0,2614.0 C 4164.0,2570.0 4161.0,2543.0 4166.0,2507.0 C 4172.0,2460.0 4174.0,2457.0 4248.0,2410.0 L 4324.0,2362.0 L 4483.0,1908.0 C 4600.0,1575.0 4644.0,1436.0 4649.0,1385.0 C 4661.0,1282.0 4814.0,789.0 4856.0,720.0 C 4885.0,672.0 4890.0,656.0 4890.0,600.0 C 4890.0,553.0 4896.0,526.0 4910.0,502.0 C 4938.0,457.0 4938.0,363.0 4910.0,328.0 C 4891.0,303.0 4891.0,303.0 4918.0,199.0 C 4946.0,91.0 4991.0,0.0 5015.0,0.0 C 5022.0,0.0 5046.0,26.0 5067.0,57.0 C 5088.0,88.0 5120.0,121.0 5140.0,132.0 C 5172.0,148.0 5174.0,153.0 5171.0,193.0 C 5169.0,236.0 5192.0,311.0 5216.0,341.0 C 5246.0,375.0 5280.0,509.0 5280.0,588.0 C 5280.0,631.0 5284.0,670.0 5289.0,676.0 C 5301.0,687.0 5334.0,777.0 5371.0,899.0 C 5396.0,981.0 5400.0,1008.0 5400.0,1116.0 C 5400.0,1221.0 5403.0,1244.0 5420.0,1273.0 C 5432.0,1292.0 5444.0,1342.0 5451.0,1391.0 C 5461.0,1470.0 5465.0,1480.0 5526.0,1571.0 C 5618.0,1709.0 5623.0,1742.0 5579.0,1895.0 C 5549.0,2000.0 5547.0,2013.0 5559.0,2043.0 C 5567.0,2061.0 5575.0,2098.0 5577.0,2125.0 C 5580.0,2153.0 5589.0,2182.0 5597.0,2192.0 C 5605.0,2201.0 5617.0,2228.0 5624.0,2252.0 C 5635.0,2289.0 5634.0,2307.0 5618.0,2380.0 C 5585.0,2532.0 5583.0,2544.0 5595.0,2570.0 C 5620.0,2622.0 5688.0,2867.0 5694.0,2924.0 C 5699.0,2970.0 5717.0,3015.0 5775.0,3129.0 C 5864.0,3305.0 5878.0,3338.0 5896.0,3413.0 C 5913.0,3482.0 5933.0,3526.0 5968.0,3562.0 C 5989.0,3585.0 5992.0,3595.0 5987.0,3632.0 C 5983.0,3658.0 5988.0,3701.0 5997.0,3740.0 C 6011.0,3797.0 6021.0,3812.0 6071.0,3861.0 L 6128.0,3917.0 L 6132.0,3996.0 C 6135.0,4062.0 6141.0,4087.0 6172.0,4150.0 C 6211.0,4230.0 6240.0,4298.0 6240.0,4310.0 C 6240.0,4314.0 6229.0,4315.0 6215.0,4312.0 C 6154.0,4301.0 6125.0,4329.0 6105.0,4421.0 C 6101.0,4440.0 6085.0,4482.0 6069.0,4516.0 C 6019.0,4622.0 6034.0,4685.0 6110.0,4692.0 C 6135.0,4694.0 6144.0,4699.0 6141.0,4710.0 C 6139.0,4718.0 6135.0,4753.0 6132.0,4788.0 C 6128.0,4844.0 6130.0,4854.0 6151.0,4876.0 C 6173.0,4900.0 6174.0,4901.0 6157.0,4930.0 C 6143.0,4953.0 6142.0,4964.0 6150.0,4980.0 C 6161.0,5001.0 6155.0,5043.0 6135.0,5075.0 C 6112.0,5113.0 6110.0,5231.0 6131.0,5311.0 C 6141.0,5352.0 6150.0,5386.0 6150.0,5388.0 C 6150.0,5389.0 6139.0,5390.0 6126.0,5390.0 C 6110.0,5390.0 6080.0,5371.0 6043.0,5336.0 C 6011.0,5307.0 5969.0,5275.0 5950.0,5265.0 C 5931.0,5255.0 5903.0,5233.0 5887.0,5215.0 C 5848.0,5168.0 5736.0,5090.0 5667.0,5062.0 C 5614.0,5041.0 5591.0,5038.0 5408.0,5035.0 C 5260.0,5033.0 5190.0,5027.0 5141.0,5015.0 C 5076.0,4998.0 5073.0,4998.0 5029.0,5017.0 C 4991.0,5034.0 4982.0,5044.0 4976.0,5070.0 C 4964.0,5133.0 4970.0,5162.0 5016.0,5248.0 C 5067.0,5344.0 5100.0,5470.0 5100.0,5574.0 C 5100.0,5627.0 5103.0,5636.0 5135.0,5671.0 C 5154.0,5692.0 5172.0,5722.0 5176.0,5737.0 C 5179.0,5753.0 5183.0,5770.0 5185.0,5775.0 C 5186.0,5781.0 5238.0,5811.0 5299.0,5843.0 C 5383.0,5887.0 5410.0,5906.0 5410.0,5921.0 C 5410.0,5933.0 5423.0,5948.0 5439.0,5958.0 C 5456.0,5967.0 5473.0,5984.0 5479.0,5996.0 C 5485.0,6010.0 5498.0,6018.0 5515.0,6018.0 C 5529.0,6018.0 5552.0,6028.0 5565.0,6040.0 C 5585.0,6059.0 5601.0,6063.0 5679.0,6065.0 C 5729.0,6066.0 5773.0,6070.0 5777.0,6074.0 C 5781.0,6077.0 5771.0,6093.0 5757.0,6108.0 C 5742.0,6124.0 5730.0,6148.0 5730.0,6161.0 C 5730.0,6199.0 5703.0,6217.0 5620.0,6234.0 C 5579.0,6243.0 5525.0,6262.0 5500.0,6278.0 C 5475.0,6293.0 5433.0,6312.0 5406.0,6320.0 C 5354.0,6334.0 5355.0,6335.0 5324.0,6284.0 C 5316.0,6270.0 5297.0,6265.0 5240.0,6262.0 C 5157.0,6257.0 5140.0,6268.0 5140.0,6325.0 C 5140.0,6366.0 5156.0,6383.0 5213.0,6404.0 L 5260.0,6422.0 L 5260.0,6471.0 C 5260.0,6517.0 5258.0,6522.0 5224.0,6542.0 L 5187.0,6563.0 L 5194.0,6624.0 C 5198.0,6658.0 5205.0,6710.0 5211.0,6740.0 C 5216.0,6770.0 5223.0,6822.0 5226.0,6855.0 C 5231.0,6910.0 5230.0,6919.0 5207.0,6945.0 C 5188.0,6969.0 5184.0,6980.0 5191.0,6998.0 C 5197.0,7013.0 5196.0,7029.0 5189.0,7041.0 C 5183.0,7053.0 5181.0,7078.0 5185.0,7099.0 C 5190.0,7128.0 5188.0,7139.0 5176.0,7143.0 C 5157.0,7151.0 5130.0,7213.0 5130.0,7251.0 C 5130.0,7272.0 5140.0,7287.0 5166.0,7307.0 C 5239.0,7363.0 5261.0,7386.0 5269.0,7417.0 C 5277.0,7443.0 5274.0,7454.0 5253.0,7483.0 C 5228.0,7518.0 5228.0,7520.0 5241.0,7587.0 C 5251.0,7639.0 5261.0,7662.0 5284.0,7683.0 C 5308.0,7706.0 5314.0,7721.0 5318.0,7768.0 C 5320.0,7799.0 5326.0,7830.0 5331.0,7836.0 C 5336.0,7842.0 5342.0,7873.0 5346.0,7905.0 C 5355.0,7977.0 5398.0,8030.0 5465.0,8053.0 C 5491.0,8062.0 5523.0,8084.0 5541.0,8105.0 C 5572.0,8140.0 5690.0,8230.0 5705.0,8230.0 C 5709.0,8230.0 5737.0,8207.0 5768.0,8179.0 C 5821.0,8130.0 5824.0,8129.0 5864.0,8137.0 C 5910.0,8146.0 6047.0,8146.0 6084.0,8136.0 C 6121.0,8127.0 6150.0,8054.0 6150.0,7970.0 L 6150.0,7902.0 L 6282.0,7860.0 C 6373.0,7831.0 6419.0,7821.0 6429.0,7827.0 C 6437.0,7832.0 6452.0,7868.0 6462.0,7906.0 C 6477.0,7963.0 6480.0,7996.0 6474.0,8098.0 L 6468.0,8222.0 L 6501.0,8256.0 L 6535.0,8291.0 L 6516.0,8323.0 C 6499.0,8352.0 6489.0,8385.0 6473.0,8463.0 C 6468.0,8489.0 6470.0,8491.0 6493.0,8485.0 C 6525.0,8476.0 6565.0,8502.0 6578.0,8539.0 C 6585.0,8560.0 6600.0,8572.0 6633.0,8585.0 C 6667.0,8598.0 6678.0,8607.0 6678.0,8623.0 C 6678.0,8635.0 6683.0,8667.0 6690.0,8693.0 C 6699.0,8730.0 6699.0,8764.0 6690.0,8843.0 C 6683.0,8899.0 6676.0,8974.0 6673.0,9009.0 C 6670.0,9054.0 6661.0,9084.0 6644.0,9110.0 C 6624.0,9141.0 6621.0,9152.0 6629.0,9174.0 C 6635.0,9188.0 6647.0,9272.0 6656.0,9360.0 C 6672.0,9515.0 6672.0,9521.0 6652.0,9585.0 C 6637.0,9635.0 6635.0,9650.0 6646.0,9650.0 C 6654.0,9650.0 6661.0,9668.0 6665.0,9698.0 C 6668.0,9724.0 6675.0,9768.0 6680.0,9795.0 C 6692.0,9856.0 6705.0,9999.0 6702.0,10020.0 C 6695.0,10053.0 6697.0,10096.0 6704.0,10112.0 C 6715.0,10137.0 6680.0,10140.0 6647.0,10117.0 C 6619.0,10098.0 6619.0,10098.0 6596.0,10119.0 C 6584.0,10130.0 6567.0,10140.0 6558.0,10140.0 C 6537.0,10140.0 6524.0,10158.0 6513.0,10199.0 C 6504.0,10234.0 6495.0,10242.0 6473.0,10233.0" fill="pink"/>
</svg>

<?xml version="1.0" standalone="no"?>
<!DOCTYPE svg PUBLIC "-//W3C//DTD SVG 20010904//EN"
 "http://www.w3.org/TR/2001/REC-SVG-20010904/DTD/svg10.dtd">
<svg version="1.0" xmlns="http://www.w3.org/2000/svg"
 width="1024.000000pt" height="1024.000000pt" viewBox="0 0 1024.000000 1024.000000"
 preserveAspectRatio="xMidYMid meet">
<metadata>
Created by potrace 1.10, written by Peter Selinger 2001-2011
</metadata>
<g transform="translate(0.000000,1024.000000) scale(0.100000,-0.100000)"
fill="#000000" stroke="none">
<path d="M6473 10233 c-7 -2 -13 -12 -13 -22 0 -9 -7 -26 -15 -37 -17 -25 -36
-133 -28 -162 3 -11 -2 -52 -11 -91 -9 -38 -16 -83 -16 -99 0 -18 -10 -38 -29
-56 -16 -16 -32 -38 -35 -51 -5 -20 -12 -22 -65 -21 -57 1 -61 -1 -93 -37 -32
-37 -35 -38 -108 -40 -70 -2 -75 -1 -78 20 -2 12 -12 25 -23 28 -10 4 -25 18
-32 32 -14 25 -15 25 -127 24 -62 -1 -121 -6 -131 -12 -10 -5 -65 -10 -123
-12 -58 -1 -107 -5 -110 -7 -2 -3 -18 -82 -35 -175 -24 -129 -31 -199 -31
-292 0 -97 -4 -130 -19 -165 -38 -87 -96 -117 -150 -77 -23 17 -37 20 -64 15
-51 -10 -60 -38 -52 -166 7 -100 6 -109 -18 -156 -25 -49 -38 -134 -57 -354
-5 -52 -17 -124 -28 -160 -40 -130 -62 -221 -62 -259 0 -21 -9 -64 -20 -97
-12 -32 -52 -183 -90 -335 -72 -286 -139 -513 -164 -552 -8 -12 -28 -73 -45
-135 -19 -69 -54 -158 -90 -230 -32 -64 -61 -130 -65 -145 -3 -15 -33 -88 -66
-163 -33 -74 -60 -141 -60 -148 0 -7 -27 -51 -61 -97 -34 -46 -65 -95 -71
-109 -5 -14 -39 -69 -75 -123 -35 -54 -62 -104 -59 -112 2 -7 30 -32 60 -54
31 -23 63 -55 72 -73 l16 -31 -67 -61 c-80 -71 -151 -141 -182 -176 -12 -14
-51 -53 -87 -88 -92 -90 -110 -132 -103 -237 l6 -84 -70 -63 c-38 -35 -92 -83
-120 -108 l-50 -45 56 -165 c30 -91 92 -286 136 -435 73 -241 94 -297 200
-528 102 -225 123 -278 154 -404 25 -102 35 -167 35 -221 0 -75 1 -79 45 -143
l45 -66 -20 -59 c-16 -44 -19 -71 -14 -107 6 -47 8 -50 82 -97 l76 -48 159
-454 c117 -333 161 -472 166 -523 12 -103 165 -596 207 -665 29 -48 34 -64 34
-120 0 -47 6 -74 20 -98 28 -45 28 -139 0 -174 -19 -25 -19 -25 8 -129 28
-108 73 -199 97 -199 7 0 31 26 52 57 21 31 53 64 73 75 32 16 34 21 31 61 -2
43 21 118 45 148 30 34 64 168 64 247 0 43 4 82 9 88 12 11 45 101 82 223 25
82 29 109 29 217 0 105 3 128 20 157 12 19 24 69 31 118 10 79 14 89 75 180
92 138 97 171 53 324 -30 105 -32 118 -20 148 8 18 16 55 18 82 3 28 12 57 20
67 8 9 20 36 27 60 11 37 10 55 -6 128 -33 152 -35 164 -23 190 25 52 93 297
99 354 5 46 23 91 81 205 89 176 103 209 121 284 17 69 37 113 72 149 21 23
24 33 19 70 -4 26 1 69 10 108 14 57 24 72 74 121 l57 56 4 79 c3 66 9 91 40
154 39 80 68 148 68 160 0 4 -11 5 -25 2 -61 -11 -90 17 -110 109 -4 19 -20
61 -36 95 -50 106 -35 169 41 176 25 2 34 7 31 18 -2 8 -6 43 -9 78 -4 56 -2
66 19 88 22 24 23 25 6 54 -14 23 -15 34 -7 50 11 21 5 63 -15 95 -23 38 -25
156 -4 236 10 41 19 75 19 77 0 1 -11 2 -24 2 -16 0 -46 -19 -83 -54 -32 -29
-74 -61 -93 -71 -19 -10 -47 -32 -63 -50 -39 -47 -151 -125 -220 -153 -53 -21
-76 -24 -259 -27 -148 -2 -218 -8 -267 -20 -65 -17 -68 -17 -112 2 -38 17 -47
27 -53 53 -12 63 -6 92 40 178 51 96 84 222 84 326 0 53 3 62 35 97 19 21 37
51 41 66 3 16 7 33 9 38 1 6 53 36 114 68 84 44 111 63 111 78 0 12 13 27 29
37 17 9 34 26 40 38 6 14 19 22 36 22 14 0 37 10 50 22 20 19 36 23 114 25 50
1 94 5 98 9 4 3 -6 19 -20 34 -15 16 -27 40 -27 53 0 38 -27 56 -110 73 -41 9
-95 28 -120 44 -25 15 -67 34 -94 42 -52 14 -51 15 -82 -36 -8 -14 -27 -19
-84 -22 -83 -5 -100 6 -100 63 0 41 16 58 73 79 l47 18 0 49 c0 46 -2 51 -36
71 l-37 21 7 61 c4 34 11 86 17 116 5 30 12 82 15 115 5 55 4 64 -19 90 -19
24 -23 35 -16 53 6 15 5 31 -2 43 -6 12 -8 37 -4 58 5 29 3 40 -9 44 -19 8
-46 70 -46 108 0 21 10 36 36 56 73 56 95 79 103 110 8 26 5 37 -16 66 -25 35
-25 37 -12 104 10 52 20 75 43 96 24 23 30 38 34 85 2 31 8 62 13 68 5 6 11
37 15 69 9 72 52 125 119 148 26 9 58 31 76 52 31 35 149 125 164 125 4 0 32
-23 63 -51 53 -49 56 -50 96 -42 46 9 183 9 220 -1 37 -9 66 -82 66 -166 l0
-68 132 -42 c91 -29 137 -39 147 -33 8 5 23 41 33 79 15 57 18 90 12 192 l-6
124 33 34 34 35 -19 32 c-17 29 -27 62 -43 140 -5 26 -3 28 20 22 32 -9 72 17
85 54 7 21 22 33 55 46 34 13 45 22 45 38 0 12 5 44 12 70 9 37 9 71 0 150 -7
56 -14 131 -17 166 -3 45 -12 75 -29 101 -20 31 -23 42 -15 64 6 14 18 98 27
186 16 155 16 161 -4 225 -15 50 -17 65 -6 65 8 0 15 18 19 48 3 26 10 70 15
97 12 61 25 204 22 225 -7 33 -5 76 2 92 11 25 -24 28 -57 5 -28 -19 -28 -19
-51 2 -12 11 -29 21 -38 21 -21 0 -34 18 -45 59 -9 35 -18 43 -40 34z"/>
</g>
</svg>
